symbolic/22x22/apps/drawpile.svg

<svg xmlns="http://www.w3.org/2000/svg" width="22" height="22" version="1.1">
 <path style="opacity:0.2" d="M 13.435547 1.5 C 12.178864 1.5 10.958406 1.9725094 9.6835938 2.6054688 A 9 9 0 0 1 11 2.5 A 9 9 0 0 1 19.185547 7.7832031 L 20.945312 6.8046875 C 20.928532 6.7664475 20.911721 6.8426975 20.894531 6.8046875 C 18.68751 3.6958233 16.138322 1.5 13.435547 1.5 z M 2.7128906 14.990234 L 1.0234375 15.904297 C 3.1570392 19.174458 5.604631 21.5 8.3691406 21.5 C 9.6157817 21.5 10.91095 21.04138 12.269531 20.400391 A 9 9 0 0 1 11 20.5 A 9 9 0 0 1 2.7128906 14.990234 z"/>
 <path style="fill:#3f3f3f" d="m 6.940658,3.5582603 3.454107,6.7822037 -9.3706446,5.064142 c 2.1336017,3.270162 4.5812514,5.595399 7.345761,5.595399 2.1340996,0 4.3790656,-1.275965 6.9168926,-2.674961 l -3.795921,-6.770307 9.453896,-5.2507049 c -0.01678,-0.03824 -0.03274,0.03801 -0.04993,0 C 18.687794,3.1951679 16.137647,1.000189 13.434872,1.000189 c -2.119731,0 -4.110918,1.283954 -6.494214,2.5580713 z"/>
 <path style="opacity:0.1;fill:#ffffff" d="m 13.434456,1.000189 c -2.119731,0 -4.110785,1.2834764 -6.494081,2.5575936 l 0.1992172,0.391598 C 9.432371,2.7126053 11.376021,1.5001844 13.434456,1.5001844 c 2.602414,0 5.060543,2.0442831 7.209894,4.9706572 l 0.300779,-0.1669905 c -0.01678,-0.03824 -0.03359,0.03801 -0.05078,0 C 18.687327,3.1949869 16.137231,1.000189 13.434456,1.000189 Z m -3.239228,9.448155 -9.1708139,4.956009 c 0.082297,0.126136 0.1677428,0.241009 0.2509743,0.364254 l 9.1190566,-4.927688 z m 1.509752,1.487291 -0.213865,0.11914 3.581021,6.387636 c 0.07316,-0.04036 0.141188,-0.07658 0.214842,-0.117186 z"/>
 <circle style="opacity:0.2" cx="11" cy="11.5" r="9"/>
 <circle style="fill:#00e6ff" cx="11" cy="11" r="9"/>
 <path style="fill:#00a6e2" d="M 11,1.9999997 A 8.9999995,8.9999995 0 0 0 7.5678708,2.6888424 C 7.5669179,2.8902212 7.6875428,3.0846716 7.9381107,3.0678707 8.8507986,3.0071784 8.8654681,2.8101177 9.185059,3.2359618 9.504205,3.6618257 9.352184,4.5427134 8.7741699,4.2994382 8.1961481,4.0557118 7.2377387,3.645856 6.9943839,4.1324458 6.7510297,4.6194401 7.1017317,4.7410766 7.5733639,4.4521475 8.0450031,4.1632046 8.4246782,4.300345 8.5159906,4.7718497 8.606853,5.2433602 8.5773706,6.1555468 8.0600586,5.9880367 7.5427661,5.8205467 7.3747488,6.0790474 7.6788323,6.3374019 7.9829095,6.5957421 7.6483753,6.7481841 7.1767573,6.5505367 6.7051319,6.352902 6.7201719,6.9612115 6.0814207,6.9306628 5.4422317,6.9001157 5.3969136,7.5995894 5.1992185,7.857909 5.0015239,8.1162826 4.9701928,8.9533523 4.9245602,9.151001 4.8789249,9.348649 4.6815771,9.500951 4.5751951,8.8774401 4.4688193,8.2539286 4.6063721,7.9793412 4.0434565,7.9337149 3.4805042,7.8880951 2.9172846,9.070434 3.2062984,9.323484 3.4953059,9.576516 3.8905412,9.090163 3.8599852,9.455321 c -0.03015,0.365159 -0.2272463,2.02216 0.3658446,2.098388 0.593091,0.07622 0.9887612,0.01552 1.4754637,0.335084 0.4867084,0.319511 1.3990803,0.348881 2.0533448,1.383178 0.6542577,1.034298 1.4155667,1.155245 2.1456307,1.322755 0.730503,0.167544 0.653879,0.578822 0.273559,1.126098 -0.380328,0.547283 -0.166763,1.110025 -1.444702,1.535888 -1.2779524,0.425421 -1.369493,1.490951 -1.3238529,1.688599 0.00487,0.02103 -0.026471,0.159662 -0.04724,0.277955 A 8.9999995,8.9999995 0 0 0 11,19.999998 8.9999995,8.9999995 0 0 0 17.376465,17.342406 c -0.205434,-0.655578 -0.425639,-1.5572 -0.432862,-1.940186 -0.01555,-0.805636 0.213201,-0.866342 -0.0758,-1.398559 -0.289015,-0.532668 -0.883028,-0.01618 -2.039063,-0.168091 -1.156038,-0.152432 -0.973493,-0.881545 -1.779786,-1.885254 -0.806307,-1.003715 0.746262,-1.825429 1.172241,-2.859741 0.360451,-0.8751971 1.736411,-0.7267262 2.402711,-0.6141352 L 17.848879,7.842529 C 17.908849,7.793479 17.965222,7.745211 18.038942,7.6909171 18.906406,7.0518949 17.61414,7.0377279 17.264405,6.7944335 16.914223,6.5511576 16.959223,6.76386 16.700805,7.0833727 16.442389,7.4028631 16.046392,6.8396728 15.696655,6.6571035 c -0.350182,-0.182125 -0.425156,0.4252728 -0.83606,1.125 -0.410472,0.6997077 -0.65428,0.3802167 -1.019532,0 C 13.475814,7.4018668 13.703542,7.0672897 14.083862,6.9152824 14.464175,6.7632813 14.495129,6.7029331 14.221191,6.3989248 13.947254,6.0949434 13.825313,6.2159506 14.099243,5.9726552 14.373188,5.7293804 14.541063,5.7599115 15.134155,5.3947741 15.727689,5.0296357 15.042863,4.6955991 14.647461,4.9619133 14.252077,5.2282615 13.749692,4.4213267 13.64331,3.7424308 13.536928,3.063569 13.855941,3.2803705 14.221191,3.037109 14.272371,3.002892 14.246171,2.7977415 14.193711,2.5976559 A 8.9999995,8.9999995 0 0 0 11,1.9999997 Z m -0.473512,0.5240478 c 0.553298,0.020993 1.187169,0.2225465 1.000856,0.8162839 -0.243355,0.7754925 -0.266976,0.5468183 -0.547119,0.7152099 -0.30319,0.1821246 -0.456794,0.3039088 -0.71521,0.6690675 C 10.006584,5.0897599 9.413621,5.013344 9.739868,4.6180413 10.066546,4.2223219 9.945617,3.1579536 9.762938,2.8690182 c 0,0 -0.24311,-0.228421 0.304322,-0.3197022 0.06849,-0.011371 0.14604,-0.018766 0.229614,-0.023071 0.07312,-0.00403 0.150571,-0.00489 0.229614,-0.0022 z M 2.986572,6.9416491 C 2.8797033,7.1493808 2.7792626,7.3676557 2.6778562,7.5843498 a 8.9999995,8.9999995 0 0 0 -0.6778565,3.4156492 8.9999995,8.9999995 0 0 0 0.392212,2.598267 L 3.9017329,12.909422 C 3.9287277,12.641656 4.077467,12.568885 4.1346434,12.511717 4.2414698,12.405364 3.4200422,11.964458 3.4501951,10.900024 3.480345,9.835596 2.5828104,10.078811 2.750366,8.9532464 2.8939813,7.9880516 3.0796544,7.3156691 2.986572,6.9416491 Z m 1.1799314,7.0433349 -1.3480223,0.720704 -0.062623,-0.123047 a 8.9999995,8.9999995 0 0 0 3.6057126,4.117675 l 0.039547,-0.165893 c 0,0 -0.8213406,-1.094843 -0.8975833,-1.84021 -0.076243,-0.744924 -0.6246826,-1.156086 -1.2634279,-2.54004 -0.027599,-0.05981 -0.049861,-0.113859 -0.073608,-0.169189 z"/>
 <path style="opacity:0.1" d="M 11,2 A 8.9999995,8.9999995 0 0 0 7.5683594,2.6894531 c -9.156e-4,0.1934832 0.1127841,0.375528 0.34375,0.375 A 8.9999995,8.9999995 0 0 1 10.046875,2.5546875 c 0.0091,-0.00168 0.01,-0.00426 0.01953,-0.00586 0.06849,-0.011371 0.146895,-0.019132 0.230469,-0.023437 0.07312,-0.00403 0.151426,-0.00464 0.230469,-0.00195 0.0019,7.28e-5 0.0039,-7.71e-5 0.0059,0 A 8.9999995,8.9999995 0 0 1 11,2.5 8.9999995,8.9999995 0 0 1 14.130859,3.078125 c 0.03071,-0.015051 0.0582,-0.019939 0.08984,-0.041016 0.05118,-0.034217 0.02512,-0.2393676 -0.02734,-0.4394532 A 8.9999995,8.9999995 0 0 0 11,2 Z M 9.851562,3.1191406 c -0.225544,0.1053745 -0.08789,0.25 -0.08789,0.25 0.07418,0.1173319 0.128271,0.3720644 0.15625,0.6484375 0.02913,-0.3214326 4.67e-4,-0.6522893 -0.06836,-0.8984375 z m 1.646485,0.3007813 c -0.212481,0.6489289 -0.250955,0.4745006 -0.517578,0.6347656 -0.30319,0.1821246 -0.456428,0.3047632 -0.714844,0.6699219 -0.114782,0.1621818 -0.290816,0.2258937 -0.427734,0.2246094 -0.02693,0.064007 -0.05858,0.1206281 -0.09766,0.1679687 -0.326247,0.3953027 0.26696,0.472573 0.525391,0.1074219 0.258416,-0.3651587 0.411654,-0.4877973 0.714844,-0.6699219 0.280143,-0.1683916 0.30352,0.060649 0.546875,-0.7148437 0.05414,-0.1725236 0.03297,-0.3084324 -0.0293,-0.4199219 z m 2.171875,0.4179687 c -0.04054,0.078247 -0.06135,0.1873058 -0.02734,0.4042969 0.106382,0.6788959 0.610476,1.4870513 1.00586,1.2207031 0.147878,-0.0996 0.32192,-0.099113 0.46875,-0.060547 0.0077,-0.00472 0.0097,-0.00295 0.01758,-0.00781 C 15.7283,5.0293928 15.043839,4.6946233 14.648438,4.9609375 14.271408,5.2149215 13.805391,4.4941383 13.669922,3.8378906 Z M 7.2929688,3.9199219 C 7.1598645,3.9461164 7.0549793,4.011165 6.9941406,4.1328125 6.8673993,4.3864441 6.9064668,4.5349408 7.0351562,4.5839844 7.1498749,4.4272033 7.3655699,4.4047536 7.6132812,4.4355469 8.0285356,4.2002827 8.3553355,4.3076475 8.4765625,4.6796875 8.5784316,4.7207823 8.6853577,4.7616887 8.7734375,4.7988281 9.238549,4.9945849 9.422584,4.4645792 9.3125,4.0273438 9.240287,4.2653625 9.058907,4.4189768 8.7734375,4.2988281 8.3399212,4.1160333 7.6922815,3.8413384 7.2929688,3.9199219 Z M 8.5332031,5.4414062 C 8.4952072,5.7914916 8.3720013,6.0891329 8.0605469,5.9882812 7.5432544,5.8207913 7.375604,6.0795361 7.6796875,6.3378906 c 0.044325,0.037658 0.047667,0.067208 0.066406,0.099609 0.083046,-0.00389 0.1875596,0.0097 0.3144531,0.050781 C 8.5245131,6.638517 8.5889301,5.9313069 8.5332031,5.4414062 Z m 5.6874999,0.9570313 c -0.03873,0.02674 -0.07931,0.037116 -0.121094,0.074219 -0.255809,0.2272016 -0.150103,0.1599392 0.08594,0.3945313 0.265473,-0.1196604 0.277437,-0.199874 0.03516,-0.46875 z M 7.0195312,6.5117188 C 6.6977249,6.4953355 6.6409386,6.9564176 6.0820312,6.9296875 5.4428422,6.8991404 5.3969139,7.5991023 5.1992188,7.8574219 5.0015241,8.1157955 4.9694607,8.9527419 4.9238281,9.150391 4.8781928,9.348039 4.6806007,9.500464 4.5742188,8.8769531 4.4678429,8.2534416 4.6058844,7.9792201 4.0429688,7.9335938 3.4868826,7.8885304 2.936093,9.038508 3.2011719,9.310547 3.3307634,8.8931307 3.6744365,8.4037291 4.0429688,8.4335938 4.6058844,8.4792198 4.4678429,8.7534417 4.5742188,9.376953 4.6806007,10.000464 4.8781928,9.848039 4.9238281,9.650391 4.9694607,9.452742 5.0015241,8.6157955 5.1992188,8.3574219 5.3969139,8.0991023 5.4428422,7.4010935 6.0820312,7.4316406 6.7207825,7.4621893 6.7041558,6.8531465 7.1757812,7.0507812 7.6473992,7.2484286 7.9837647,7.0962308 7.6796875,6.8378906 7.5946137,6.7656105 7.5529215,6.6957839 7.5390625,6.6328125 7.4361014,6.6296641 7.3164271,6.6097236 7.1757812,6.5507812 7.1168281,6.5260769 7.0655036,6.5140592 7.0195312,6.5117188 Z M 15.576172,6.625 c -0.254563,0.00382 -0.355303,0.5439887 -0.714844,1.15625 -0.410472,0.6997077 -0.654279,0.3802167 -1.019531,0 -0.04181,-0.043525 -0.05119,-0.082877 -0.07813,-0.125 -0.132015,0.169327 -0.152907,0.3844881 0.07813,0.625 0.365252,0.3802167 0.609059,0.6997077 1.019531,0 0.410904,-0.6997272 0.485756,-1.307125 0.835938,-1.125 0.349737,0.1825693 0.74549,0.7472248 1.003906,0.4277344 0.258418,-0.3195132 0.212318,-0.5323384 0.5625,-0.2890625 0.18119,0.1260454 0.611421,0.1907021 0.867187,0.3125 0.628212,-0.5504648 -0.534788,-0.5812655 -0.867187,-0.8125 C 16.91349,6.551646 16.95959,6.7644717 16.701172,7.0839844 16.442756,7.4034748 16.047003,6.8388193 15.697266,6.65625 15.653493,6.6334844 15.612538,6.6244547 15.576172,6.625 Z M 2.9863281,6.9414062 C 2.8794594,7.149138 2.7791408,7.3672903 2.6777344,7.5839844 A 8.9999995,8.9999995 0 0 0 2,11 8.9999995,8.9999995 0 0 0 2.0117188,11.230469 8.9999995,8.9999995 0 0 1 2.6777344,8.0839844 C 2.7791408,7.8672903 2.8794594,7.649138 2.9863281,7.4414062 c 0.00149,0.00599 6.043e-4,0.015343 0.00195,0.021484 0.022545,-0.206334 0.030928,-0.3893649 -0.00195,-0.521484 z M 2.7558594,9.416016 c -0.00219,0.01444 -0.00369,0.02253 -0.00586,0.03711 -0.1675556,1.125565 0.7293686,0.882838 0.6992188,1.947266 -0.019075,0.673382 0.2900275,1.076755 0.5019531,1.324218 C 4.0077283,12.603622 4.094099,12.55238 4.134765,12.51172 4.241592,12.405366 3.4190659,11.964825 3.4492188,10.900391 3.4741881,10.01886 2.8714978,10.024059 2.7558594,9.416016 Z M 3.828125,9.833984 C 3.809023,10.084664 3.796865,10.384631 3.816406,10.6875 3.827232,10.37177 3.848968,10.081119 3.859375,9.955078 3.865335,9.883818 3.850645,9.852211 3.828125,9.833984 Z m 9.041016,1.783204 c -0.07645,0.26883 -0.053,0.544322 0.179687,0.833984 0.806293,1.003709 0.623259,1.732334 1.779297,1.884766 1.156035,0.151911 1.750048,-0.3647 2.039063,0.167968 0.06282,0.115693 0.09352,0.203483 0.115234,0.28711 0.0404,-0.281902 0.07273,-0.440967 -0.115234,-0.78711 -0.289015,-0.532668 -0.883028,-0.01606 -2.039063,-0.167968 -1.156038,-0.152432 -0.973004,-0.881057 -1.779297,-1.884766 -0.09113,-0.113436 -0.143789,-0.224628 -0.179687,-0.333984 z m -8.7031254,2.367187 -1.3476562,0.720703 a 8.9999995,8.9999995 0 0 0 0.1953125,0.394531 l 1.1523437,-0.615234 c 0.023747,0.05533 0.04662,0.110112 0.074219,0.169922 0.6387453,1.383954 1.1874289,1.794138 1.2636718,2.539062 0.043594,0.426187 0.2991416,0.908265 0.5371094,1.292969 a 8.9999995,8.9999995 0 0 0 0.3203125,0.214844 l 0.039063,-0.166016 c 0,0 -0.8202416,-1.09643 -0.8964844,-1.841797 -0.076243,-0.744924 -0.6249265,-1.155108 -1.2636718,-2.539062 -0.027599,-0.05981 -0.050472,-0.114592 -0.074219,-0.169922 z m 6.2187504,1.371094 c -0.04933,0.113641 -0.120184,0.234641 -0.210938,0.365234 -0.380328,0.547283 -0.167373,1.109293 -1.4453124,1.535156 -1.2779524,0.425421 -1.3698588,1.491806 -1.3242187,1.689453 0.00487,0.02103 -0.026106,0.159051 -0.046875,0.277344 a 8.9999995,8.9999995 0 0 0 0.054687,0.02148 c 0.028566,-0.375668 0.2623495,-1.137394 1.3164062,-1.488282 1.2779399,-0.425863 1.0649849,-0.987873 1.4453129,-1.535156 0.248204,-0.357162 0.36136,-0.653864 0.210938,-0.865234 z m 6.578125,0.160156 c -0.0103,0.111128 -0.02264,0.2259 -0.01953,0.386719 0.0059,0.311449 0.159132,0.952886 0.324219,1.539062 a 8.9999995,8.9999995 0 0 0 0.109375,-0.09961 c -0.191999,-0.612704 -0.382186,-1.407889 -0.414062,-1.826172 z"/>
 <path style="opacity:0.1;fill-rule:evenodd" d="m 18.726399,4.5157816 c 0.505581,0.7128144 0.14465,1.577202 0.438473,2.3368924 0.488275,0.4031113 0.277318,0.5276672 -0.184568,0.7275323 -3.994209,2.1493967 -7.969461,4.3349847 -11.9813355,6.4501357 -0.7310653,0.31493 -0.1448852,0.833043 0.3535122,0.437496 L 20.369939,8.6221892 C 19.909727,8.0773563 20.886961,7.7949764 20.999816,7.3536459 21.013931,6.4984058 20.213165,5.9614303 19.728343,5.3565943 19.418394,5.0486537 19.077944,4.7734412 18.726399,4.5157816 Z M 15.365102,8.1915287 C 14.629728,8.3232625 13.978285,8.7497026 13.284067,9.022576 L 1.8066335,14.175849 c 0.5944939,0.899892 -1.9286653,1.165785 -0.1767562,2.27244 0.470042,0.719119 1.1277667,1.307475 1.815413,1.814436 C 2.9450147,17.55538 3.2927548,16.701041 3.0146302,15.944387 2.5367037,15.535705 2.7528138,15.408658 3.2109174,15.210995 7.1998166,13.064243 11.170796,10.882568 15.176628,8.7686719 15.363047,8.6908566 15.816831,8.2518646 15.365102,8.1915287 Z"/>
 <path style="fill:#ffffff;fill-rule:evenodd" d="m 5.5505684,12.098778 -3.4474179,1.58861 0.6342245,1.112031 3.2967114,-1.747476 z"/>
 <path style="fill:#ffffff;fill-rule:evenodd" d="M 16.656696,9.681314 20.104114,8.0927041 19.46989,6.9806734 16.173178,8.7281488 Z"/>
 <path style="fill:#616161;fill-rule:evenodd" d="m 18.726655,4.0156627 c 0.505581,0.7128144 0.144311,1.577231 0.438133,2.3369215 0.488276,0.4031112 0.2777,0.5280701 -0.184187,0.7279352 C 14.986393,9.229916 11.010715,11.415433 6.99884,13.530584 6.2677747,13.845514 6.8544568,14.363296 7.3528542,13.967749 L 20.369982,8.1226533 C 19.90977,7.5778204 20.886778,7.2951095 20.999633,6.853779 21.013748,5.9985389 20.213152,5.4613109 19.72833,4.856475 19.418381,4.5485343 19.0782,4.2733223 18.726655,4.0156627 Z M 19.46989,7.0897894 19.947834,8.0492575 16.90331,9.47995 C 16.403647,9.182401 16.404661,8.4590302 17.014115,8.3626066 Z M 15.365257,7.6918503 C 14.629883,7.8235836 13.978698,8.2492662 13.28448,8.5221397 L 1.8070199,13.676292 c 0.5944939,0.899893 -1.92934534,1.165782 -0.1774362,2.272436 0.470042,0.71912 1.1278532,1.307383 1.8154995,1.814344 C 2.9448076,17.055727 3.2931768,16.201547 3.0150521,15.444893 2.5371256,15.036211 2.7530502,14.908669 3.2111538,14.711007 7.2000531,12.564254 11.171272,10.382984 15.177104,8.269088 15.363524,8.1912727 15.816985,7.7521863 15.365257,7.6918503 Z M 5.2736924,12.320059 c 0.4986089,0.298593 0.4972769,1.020848 -0.1118585,1.117343 l -2.4557741,1.272817 -0.477944,-0.959468 z"/>
</svg>

<svg xmlns="http://www.w3.org/2000/svg" width="22" height="22"><path style="opacity:.2" d="M13.436 1.5c-1.257 0-2.478.473-3.752 1.105A9 9 0 0 1 11 2.5a9 9 0 0 1 8.186 5.283l1.76-.978c-.017-.039-.034.038-.051 0-2.207-3.11-4.757-5.305-7.46-5.305zM2.713 14.99l-1.69.914C3.157 19.174 5.605 21.5 8.37 21.5c1.247 0 2.542-.459 3.9-1.1a9 9 0 0 1-1.269.1 9 9 0 0 1-8.287-5.51z"/><path style="fill:#3f3f3f" d="m6.94 3.558 3.455 6.782-9.37 5.065C3.157 18.675 5.604 21 8.37 21c2.134 0 4.379-1.276 6.917-2.675l-3.796-6.77 9.454-5.251c-.017-.038-.033.038-.05 0C18.688 3.195 16.138 1 13.435 1c-2.12 0-4.111 1.284-6.494 2.558z"/><path style="opacity:.1;fill:#fff" d="M13.434 1c-2.12 0-4.11 1.284-6.494 2.558l.2.391C9.432 2.713 11.376 1.5 13.434 1.5c2.603 0 5.061 2.044 7.21 4.97l.301-.166c-.017-.038-.033.038-.05 0C18.686 3.195 16.136 1 13.434 1zm-3.239 9.448-9.17 4.956c.082.126.167.241.25.365l9.12-4.928zm1.51 1.488-.214.119 3.581 6.387.215-.117z"/><circle style="opacity:.2" cx="11" cy="11.5" r="9"/><circle style="fill:#00e6ff" cx="11" cy="11" r="9"/><path style="fill:#00a6e2" d="M11 2a9 9 0 0 0-3.432.689c-.001.201.12.396.37.379.913-.06.927-.258 1.247.168.32.426.167 1.307-.41 1.063-.579-.243-1.537-.653-1.78-.167-.244.487.107.61.578.32.472-.289.852-.152.943.32.09.471.061 1.384-.456 1.216-.517-.167-.685.091-.381.35.304.258-.03.41-.502.213-.472-.198-.457.41-1.096.38-.639-.03-.684.669-.882.927-.197.258-.229 1.095-.274 1.293-.046.198-.243.35-.35-.274-.106-.623.031-.898-.532-.943-.562-.046-1.126 1.136-.837 1.39.29.253.685-.234.654.131-.03.365-.227 2.022.366 2.099.593.076.989.015 1.475.335.487.32 1.4.349 2.054 1.383.654 1.034 1.415 1.155 2.145 1.323.73.167.654.579.274 1.126-.38.547-.167 1.11-1.445 1.536-1.278.425-1.37 1.49-1.324 1.688.005.021-.026.16-.047.278A9 9 0 0 0 11 20a9 9 0 0 0 6.376-2.658c-.205-.655-.425-1.557-.432-1.94-.016-.805.213-.866-.076-1.398-.29-.533-.883-.017-2.04-.168-1.155-.153-.973-.882-1.779-1.886-.806-1.003.746-1.825 1.172-2.86.36-.875 1.737-.726 2.403-.614l1.225-.633c.06-.05.116-.098.19-.152.867-.64-.425-.653-.775-.897-.35-.243-.305-.03-.563.29-.259.319-.655-.244-1.004-.427-.35-.182-.426.425-.836 1.125s-.655.38-1.02 0-.137-.715.243-.867c.38-.152.411-.212.137-.516-.274-.304-.396-.183-.122-.426.274-.244.442-.213 1.035-.578.594-.365-.091-.7-.487-.433-.395.266-.897-.54-1.004-1.22-.106-.678.213-.462.578-.705.051-.034.025-.24-.027-.44A9 9 0 0 0 11 2zm-.474.524c.554.021 1.188.223 1.001.816-.243.776-.267.547-.547.716-.303.182-.457.303-.715.669-.258.365-.851.288-.525-.107.327-.396.206-1.46.023-1.749 0 0-.243-.228.304-.32a2.594 2.594 0 0 1 .46-.025zm-7.54 4.418c-.106.207-.207.426-.308.642A9 9 0 0 0 2 11a9 9 0 0 0 .392 2.598l1.51-.689c.027-.267.175-.34.233-.397.106-.107-.715-.548-.685-1.612.03-1.064-.867-.821-.7-1.947.144-.965.33-1.637.237-2.011zm1.18 7.043-1.348.72-.062-.122A9 9 0 0 0 6.362 18.7l.04-.166s-.822-1.094-.898-1.84c-.077-.745-.625-1.156-1.264-2.54l-.074-.169z"/><path style="opacity:.1" d="M11 2a9 9 0 0 0-3.432.69c0 .193.113.375.344.374a9 9 0 0 1 2.135-.51c.009-.001.01-.004.02-.005a2.616 2.616 0 0 1 .46-.025h.006A9 9 0 0 1 11 2.5a9 9 0 0 1 3.13.578c.032-.015.06-.02.09-.04.052-.035.026-.24-.027-.44A9 9 0 0 0 11 2zM9.852 3.12c-.226.105-.088.25-.088.25.074.116.128.371.156.648.03-.322 0-.653-.068-.899zm1.646.3c-.212.649-.25.474-.518.635-.303.182-.456.304-.714.67a.528.528 0 0 1-.428.224.67.67 0 0 1-.098.168c-.326.395.267.473.526.108.258-.366.411-.488.714-.67.28-.169.304.06.547-.715a.51.51 0 0 0-.029-.42zm2.172.418c-.04.078-.061.187-.027.404.106.68.61 1.487 1.005 1.22a.57.57 0 0 1 .47-.06c.007-.004.009-.003.017-.007.593-.366-.091-.7-.487-.434-.377.254-.843-.467-.978-1.123zm-6.377.082a.397.397 0 0 0-.299.213c-.127.253-.088.402.041.451.115-.157.33-.18.578-.148.416-.236.742-.128.864.244.101.04.208.082.296.119.466.196.65-.334.54-.772-.073.238-.254.392-.54.272-.433-.183-1.08-.458-1.48-.38zm1.24 1.521c-.038.35-.161.648-.472.547-.518-.167-.685.092-.381.35.044.038.047.067.066.1a.899.899 0 0 1 .315.05c.464.15.528-.557.472-1.047zm5.688.957c-.039.027-.08.038-.121.075-.256.227-.15.16.086.394.265-.12.277-.2.035-.469zm-7.201.114c-.322-.017-.38.444-.938.418-.64-.03-.685.67-.883.927-.197.259-.23 1.096-.275 1.293-.046.198-.243.35-.35-.273-.106-.624.032-.898-.531-.943-.556-.045-1.107 1.105-.842 1.377.13-.418.473-.907.842-.877.563.045.425.32.531.943.107.623.304.471.35.273.045-.197.078-1.034.275-1.293.198-.258.244-.956.883-.925.639.03.622-.579 1.094-.381.471.197.808.045.504-.213a.388.388 0 0 1-.14-.205 1.001 1.001 0 0 1-.364-.082.466.466 0 0 0-.156-.04zm8.556.113c-.254.004-.355.544-.715 1.156-.41.7-.654.38-1.02 0-.041-.043-.05-.083-.077-.125-.132.17-.153.385.078.625.365.38.609.7 1.02 0 .41-.7.485-1.307.835-1.125.35.183.746.747 1.004.428.259-.32.212-.532.563-.29.18.127.611.192.867.313.628-.55-.535-.58-.867-.812-.35-.243-.304-.03-.563.289-.258.32-.654-.245-1.004-.428a.254.254 0 0 0-.12-.031zm-12.59.316c-.107.208-.207.426-.308.643A9 9 0 0 0 2 11a9 9 0 0 0 .012.23 9 9 0 0 1 .666-3.146c.101-.217.201-.435.308-.643.002.006 0 .016.002.022.023-.206.031-.39-.002-.522zm-.23 2.475-.006.037c-.168 1.126.73.883.7 1.947-.02.674.29 1.077.501 1.325.057-.121.143-.173.184-.213.107-.107-.716-.547-.686-1.612.025-.881-.578-.876-.693-1.484zm1.072.418c-.019.25-.031.55-.012.854.011-.316.033-.607.043-.733.006-.071-.008-.103-.03-.121zm9.041 1.783c-.076.269-.053.545.18.834.806 1.004.623 1.733 1.78 1.885 1.155.152 1.75-.365 2.038.168.063.116.094.203.115.287.04-.282.073-.441-.115-.787-.289-.533-.883-.016-2.039-.168-1.156-.152-.973-.881-1.78-1.885a1.032 1.032 0 0 1-.179-.334zm-8.703 2.367-1.348.721a9 9 0 0 0 .196.395l1.152-.616.074.17c.639 1.384 1.188 1.794 1.264 2.54.044.426.299.908.537 1.292a9 9 0 0 0 .32.215l.04-.166s-.82-1.096-.897-1.842c-.076-.745-.625-1.155-1.264-2.539l-.074-.17zm6.219 1.371c-.05.114-.12.235-.211.366-.38.547-.168 1.109-1.445 1.535-1.278.425-1.37 1.492-1.325 1.69.005.02-.026.158-.047.277a9 9 0 0 0 .055.021c.029-.376.262-1.137 1.317-1.488 1.277-.426 1.065-.988 1.445-1.535.248-.357.361-.654.21-.866zm6.578.16c-.01.112-.023.227-.02.387.006.312.16.953.325 1.54a9 9 0 0 0 .109-.1c-.192-.613-.382-1.408-.414-1.826z"/><path style="opacity:.1;fill-rule:evenodd" d="M18.726 4.516c.506.713.145 1.577.439 2.337.488.403.277.527-.185.727C14.986 9.73 11.01 11.915 7 14.03c-.731.315-.145.833.353.438L20.37 8.622c-.46-.545.517-.827.63-1.268.014-.856-.787-1.393-1.272-1.997a8.752 8.752 0 0 0-1.002-.841zm-3.36 3.676c-.736.131-1.388.558-2.082.83L1.807 14.177c.594.9-1.929 1.166-.177 2.272.47.72 1.128 1.308 1.815 1.815-.5-.708-.152-1.562-.43-2.319-.478-.408-.262-.535.196-.733 3.989-2.147 7.96-4.328 11.966-6.442.186-.078.64-.517.188-.577z"/><path style="fill:#fff;fill-rule:evenodd" d="m5.55 12.099-3.447 1.588.634 1.112 3.297-1.747zM16.657 9.681l3.447-1.588-.634-1.112-3.297 1.747z"/><path style="fill:#616161;fill-rule:evenodd" d="M18.727 4.016c.505.712.144 1.577.438 2.337.488.403.277.528-.184.728-3.995 2.149-7.97 4.334-11.982 6.45-.731.315-.145.832.354.437L20.37 8.123c-.46-.545.517-.828.63-1.27.014-.854-.787-1.392-1.272-1.997a8.749 8.749 0 0 0-1.001-.84zm.743 3.074.478.96-3.045 1.43c-.5-.298-.498-1.021.111-1.117zm-4.105.602c-.735.132-1.386.557-2.08.83L1.806 13.676c.595.9-1.93 1.166-.177 2.273.47.719 1.127 1.307 1.815 1.814-.5-.707-.152-1.561-.43-2.318-.478-.409-.262-.536.196-.734 3.99-2.147 7.96-4.328 11.966-6.442.187-.078.64-.517.188-.577zM5.274 12.32c.498.299.497 1.02-.112 1.117L2.706 14.71l-.478-.96z"/></svg>
